packages/astro-components-stencil/src/icons/functions.svg

<svg xmlns="http://www.w3.org/2000/svg" viewBox="0 0 24 24"><g xmlns="http://www.w3.org/2000/svg" id="functions" fill-rule="nonzero">
            <path d="M16.5 4H7.56C6.7 4 6 4.7 6 5.56c0 .28.12.55.32.74L12.5 12l-6.18 5.7c-.2.19-.32.46-.32.74C6 19.3 6.7 20 7.56 20h8.94c.83 0 1.5-.67 1.5-1.5s-.67-1.5-1.5-1.5H11l3.59-3.59c.78-.78.78-2.05 0-2.83L11 7h5.5c.83 0 1.5-.67 1.5-1.5S17.33 4 16.5 4z"/>
        </g></svg>

<svg width="24" height="24" viewBox="0 0 24 24" fill="none" xmlns="http://www.w3.org/2000/svg">
<path d="M16.5 4H7.56C6.7 4 6 4.7 6 5.56C6 5.84 6.12 6.11 6.32 6.3L12.5 12L6.32 17.7C6.12 17.89 6 18.16 6 18.44C6 19.3 6.7 20 7.56 20H16.5C17.33 20 18 19.33 18 18.5C18 17.67 17.33 17 16.5 17H11L14.59 13.41C15.37 12.63 15.37 11.36 14.59 10.58L11 7H16.5C17.33 7 18 6.33 18 5.5C18 4.67 17.33 4 16.5 4Z" fill="black"/>
</svg>
